X:24
T:Wintertime
C:Music by George Gershwin
C:Words with apologies to Du Bose Heyward
M:C|
L:1/4
K:D
%
f d | f4- | f z e/>d/ e/>f/ d | B2 F2- | F z f d |
w: Win- ter- time_ and a star is a-blaz- ing_ An- gels
w: On Easter morn- ing you're go-ing to rise up sing- ing You'll roll
%
e/ e3/2- e2 | z d/>B/ d/>B/ d | c4- | c2 z/ f c/ | f/ f f/- f2 |
w: sing- ing_ as the shep- herds draw nigh_ Oh, you dad- dy's God_
w: back that stone and you'll take to the sky_ Be- fore that morn- ing_
%
z e/>d/ e/>f/ d | B2 F2- | F2 z F | A F/A/ B d | (f/ e3/2) d2 | (d B3) | z2 |]
w: and your mom- ma's a vir- gin_ So hush lit- tle ba- by, don't_ you cry_
w: you bet- ter get some dis- ci- ples, But watch out for Ju- das, that_ one's sly_
%
%%vskip 0.8cm
%
W: 1. Wintertime and a star is a-blazing,
W:    Angels singing as the shepherds draw nigh.
W:    Oh, you daddy's God and your momma's a virgin,
W:    So hush little baby, don't you cry.
W:
W: 2. On Easter morning you're going to rise up singing.
W:    You'll roll back that stone and you'll take to the sky.
W:    Before that morning you better get some disciples,
W:    But watch out for Judas, that one's sly.

